src/icons/outline/communication/headset.svg

<svg width="24" height="24" viewBox="0 0 24 24" fill="none" xmlns="http://www.w3.org/2000/svg">
<g clip-path="url(#clip0_4787_640)">
<path fill-rule="evenodd" clip-rule="evenodd" d="M18.7493 8.52987C18.3827 5.13322 15.4971 2.47202 11.9952 2.47202C8.4929 2.47202 5.60709 5.12521 5.241 8.52923C5.78526 8.56312 7.26328 8.92451 7.26328 9.94938V16.7888C7.26328 17.8682 5.62383 18.2117 5.16243 18.2117H4.47523C2.56091 18.2117 1 16.6514 1 14.738V12.0002C1 10.3333 2.18459 8.93446 3.75547 8.60167C4.09372 4.35586 7.66255 1.00012 11.9952 1.00012C16.3271 1.00012 19.8955 4.35477 20.2348 8.5996C21.8105 8.92862 23.0001 10.3298 23.0001 12.0002V14.738C23.0001 16.3956 21.8287 17.7881 20.2708 18.1309V18.1528C20.2708 20.0662 18.7099 21.6264 16.7956 21.6264H15.3409C15.0446 22.4275 14.2727 23.0001 13.3696 23.0001H10.6306C9.47222 23.0001 8.52979 22.0581 8.52979 20.9002C8.52979 19.7423 9.47222 18.8003 10.6306 18.8003H13.3696C14.2654 18.8003 15.0321 19.3636 15.3336 20.1545H16.7956C17.8758 20.1545 18.7666 19.2926 18.7975 18.2109C18.2883 18.1924 16.7368 17.8388 16.7368 16.7888V9.94938C16.7368 8.9306 18.1973 8.56745 18.7493 8.52987ZM21.5275 14.738C21.5275 15.8098 20.6836 16.68 19.6342 16.7368C19.6016 16.7323 19.5683 16.7299 19.5346 16.7299C19.4941 16.7299 19.4544 16.7333 19.4156 16.7398H18.8377C18.71 16.7398 18.3959 16.6416 18.2094 16.5533V10.1849C18.3861 10.0868 18.7002 9.99845 18.8377 9.99845H19.5249C20.6342 9.99845 21.5275 10.9012 21.5275 12.0002V14.738ZM4.47523 9.99845C3.37573 9.99845 2.47256 10.8914 2.47256 12.0002V14.738C2.47256 15.837 3.36591 16.7398 4.47523 16.7398H5.16243C5.29987 16.7398 5.61401 16.6514 5.79072 16.5533V10.1849C5.61401 10.0966 5.29005 9.99845 5.16243 9.99845H4.47523ZM10.0023 20.8904C10.0023 20.5469 10.287 20.2624 10.6306 20.2624H13.3696C13.7132 20.2624 13.9979 20.5469 13.9979 20.8904C13.9979 21.2338 13.723 21.5184 13.3696 21.5184H10.6306C10.287 21.5184 10.0023 21.2338 10.0023 20.8904Z" fill="#3C3B44"/>
</g>
<defs>
<clipPath id="clip0_4787_640">
<rect width="24" height="24" fill="white"/>
</clipPath>
</defs>
</svg>

<svg xmlns="http://www.w3.org/2000/svg" width="24" height="24" fill="none" viewBox="0 0 24 24"><g clip-path="url(#a)"><path fill="currentColor" fill-rule="evenodd" d="M18.75 8.53c-.367-3.397-3.253-6.058-6.755-6.058a6.796 6.796 0 0 0-6.754 6.057c.544.034 2.022.396 2.022 1.42v6.84c0 1.08-1.64 1.423-2.1 1.423h-.688A3.48 3.48 0 0 1 1 14.738V12a3.48 3.48 0 0 1 2.755-3.398C4.094 4.356 7.663 1 11.995 1s7.9 3.355 8.24 7.6A3.48 3.48 0 0 1 23 12v2.738a3.48 3.48 0 0 1-2.73 3.393v.022a3.48 3.48 0 0 1-3.474 3.473H15.34A2.1 2.1 0 0 1 13.37 23h-2.74c-1.158 0-2.1-.942-2.1-2.1s.942-2.1 2.1-2.1h2.74c.895 0 1.662.564 1.964 1.354h1.462c1.08 0 1.97-.861 2.002-1.943-.51-.019-2.061-.372-2.061-1.422v-6.84c0-1.018 1.46-1.382 2.012-1.42m2.778 6.208a2.004 2.004 0 0 1-1.894 1.999.7.7 0 0 0-.218.003h-.578c-.128 0-.442-.098-.629-.187v-6.368c.177-.098.491-.187.629-.187h.687c1.11 0 2.003.903 2.003 2.002zM4.474 9.998c-1.1 0-2.002.893-2.002 2.002v2.738c0 1.099.893 2.002 2.002 2.002h.687c.138 0 .452-.089.629-.187v-6.368c-.177-.088-.501-.187-.629-.187zm5.527 10.892c0-.343.285-.628.629-.628h2.739c.343 0 .628.285.628.628a.626.626 0 0 1-.628.628h-2.74a.633.633 0 0 1-.628-.628" clip-rule="evenodd"/></g><defs><clipPath id="a"><path fill="currentColor" d="M0 0h24v24H0z"/></clipPath></defs></svg>
